X:9541
T:Les ventres noirs (version Pauvert)
M:3/8
L:1/16
K:C
defede|c2def2|g2egfe|dfc4|\
defede|c2def2|g2egfe|deg4:|
|:defede|c2dedc|B2G2AB|c2d4|\
defede|c2dedc|B2G2AB|c6:|
